digitransit-component/packages/digitransit-component-icon/src/assets/search-rail-stop-digitransit.svg

<svg width="24" height="24" viewBox="0 0 32 32"  xmlns="http://www.w3.org/2000/svg">
    <rect x="14.5" y="22" width="3" height="8" rx="1.5" fill="#333333"/>
    <circle cx="16" cy="13" r="11" />
    <path d="M22.3998 21H9.60017C8.71627 21 8 20.2837 8 19.4003V6.60023C8 5.71629 8.71627 5 9.60017 5H22.3998C23.2837 5 24 5.71629 24 6.60023V19.4003C23.9994 20.2837 23.2832 21 22.3998 21Z" />
    <path d="M20.6518 14.8921V9.71037C20.6518 8.59727 19.7493 6.6008 18.6362 6.6008H13.3644C12.2513 6.6008 11.3488 8.59727 11.3488 9.71037V14.8921C11.3488 16.0052 12.2513 17.4547 13.3644 17.4547H13.4807L12.9845 18.0474H12.1232L11.5763 18.631H12.4946L11.85 19.4009H13.037L13.6816 18.631H18.3179L18.9625 19.4009H20.1495L19.5049 18.631H20.4232L19.8763 18.0474H19.0161L18.5199 17.4547H18.6362C19.7493 17.4552 20.6518 16.0057 20.6518 14.8921ZM19.2831 15.5186C18.9551 15.5186 18.6893 15.2527 18.6893 14.9254C18.6893 14.5974 18.9551 14.3321 19.2831 14.3321C19.611 14.3321 19.8763 14.598 19.8763 14.9254C19.8763 15.2533 19.6104 15.5186 19.2831 15.5186ZM14.2765 7.84034H17.723V8.42398H14.2765V7.84034ZM12.717 15.5186C12.3891 15.5186 12.1238 15.2527 12.1238 14.9254C12.1238 14.5974 12.3896 14.3321 12.717 14.3321C13.0449 14.3321 13.3102 14.598 13.3102 14.9254C13.3102 15.2533 13.0449 15.5186 12.717 15.5186ZM12.3529 13.0491C12.2175 13.0124 12.1232 12.8899 12.1232 12.7494V9.64208C12.1232 9.47105 12.2621 9.33219 12.4331 9.33219H19.5658C19.7369 9.33219 19.8757 9.47105 19.8757 9.64208V12.75C19.8757 12.8905 19.782 13.013 19.646 13.0497C19.1058 13.1947 17.6727 13.3127 15.9992 13.3127C14.3256 13.3127 12.8931 13.1942 12.3529 13.0491ZM17.8291 18.0479H14.1704L14.6666 17.4552H17.3324L17.8291 18.0479Z" fill="white"/>
</svg>

<svg xmlns="http://www.w3.org/2000/svg" width="24" height="24" viewBox="0 0 32 32">
 <rect width="3" height="8" x="14.5" y="22" fill="#333" rx="1.5"/>
 <circle cx="16" cy="13" r="11"/>
 <path d="M22.4 21H9.6A1.6 1.6 0 0 1 8 19.4V6.6A1.6 1.6 0 0 1 9.6 5h12.8A1.6 1.6 0 0 1 24 6.6v12.8a1.6 1.6 0 0 1-1.6 1.6"/>
 <path fill="#fff" d="M20.652 14.892V9.71c0-1.113-.903-3.11-2.016-3.11h-5.272c-1.113 0-2.015 1.997-2.015 3.11v5.182c0 1.113.902 2.563 2.015 2.563h.117l-.496.592h-.862l-.547.584h.919l-.645.77h1.187l.645-.77h4.636l.644.77h1.188l-.645-.77h.918l-.547-.584h-.86l-.496-.592h.116c1.113 0 2.016-1.45 2.016-2.563m-1.369.627a.594.594 0 1 1 0-1.188.594.594 0 0 1 0 1.188M14.276 7.84h3.447v.584h-3.446zm-1.559 7.679a.593.593 0 1 1 0-1.187.593.593 0 0 1 0 1.187m-.364-2.47a.31.31 0 0 1-.23-.3V9.642a.31.31 0 0 1 .31-.31h7.133a.31.31 0 0 1 .31.31v3.108a.31.31 0 0 1-.23.3c-.54.145-1.973.263-3.647.263s-3.106-.119-3.646-.264m5.476 4.999H14.17l.497-.593h2.665z"/>
</svg>
